app/component-library/components/Icons/Icon/assets/card.svg

<svg width="24" height="24" viewBox="0 0 24 24" fill="none" xmlns="http://www.w3.org/2000/svg">
<path d="M22.2808 7.5499C22.2808 8.2099 21.7408 8.7499 21.0808 8.7499H3.48076C2.82076 8.7499 2.28076 8.2099 2.28076 7.5499V7.5399C2.28076 5.2499 4.13076 3.3999 6.42076 3.3999H18.1308C20.4208 3.3999 22.2808 5.2599 22.2808 7.5499Z" fill="currentColor"/>
<path d="M2.28076 11.4499V16.4599C2.28076 18.7499 4.13076 20.5999 6.42076 20.5999H18.1308C20.4208 20.5999 22.2808 18.7399 22.2808 16.4499V11.4499C22.2808 10.7899 21.7408 10.2499 21.0808 10.2499H3.48076C2.82076 10.2499 2.28076 10.7899 2.28076 11.4499ZM8.28076 17.2499H6.28076C5.87076 17.2499 5.53076 16.9099 5.53076 16.4999C5.53076 16.0899 5.87076 15.7499 6.28076 15.7499H8.28076C8.69076 15.7499 9.03076 16.0899 9.03076 16.4999C9.03076 16.9099 8.69076 17.2499 8.28076 17.2499ZM14.7808 17.2499H10.7808C10.3708 17.2499 10.0308 16.9099 10.0308 16.4999C10.0308 16.0899 10.3708 15.7499 10.7808 15.7499H14.7808C15.1908 15.7499 15.5308 16.0899 15.5308 16.4999C15.5308 16.9099 15.1908 17.2499 14.7808 17.2499Z" fill="currentColor"/>
</svg>

<svg xmlns="http://www.w3.org/2000/svg" width="24" height="24" viewBox="0 0 24 24" fill="none"><path d="M22.28 7.55c0 .66-.54 1.2-1.2 1.2H3.48c-.66 0-1.2-.54-1.2-1.2v-.01c0-2.29 1.85-4.14 4.14-4.14h11.71c2.29 0 4.15 1.86 4.15 4.15zM2.28 11.45v5.01c0 2.29 1.85 4.14 4.14 4.14h11.71c2.29 0 4.15-1.86 4.15-4.15v-5c0-.66-.54-1.2-1.2-1.2H3.48c-.66 0-1.2.54-1.2 1.2zm6 5.8h-2c-.41 0-.75-.34-.75-.75s.34-.75.75-.75h2c.41 0 .75.34.75.75s-.34.75-.75.75zm6.5 0h-4c-.41 0-.75-.34-.75-.75s.34-.75.75-.75h4c.41 0 .75.34.75.75s-.34.75-.75.75z" fill="currentColor"/></svg>
